assets/svg/icon-ui-redpoint-controls-dark-gray.svg

<?xml version="1.0" encoding="UTF-8" standalone="no"?>
<svg width="95px" height="32px" viewBox="0 0 95 32" version="1.1" xmlns="http://www.w3.org/2000/svg" xmlns:xlink="http://www.w3.org/1999/xlink">
    <!-- Generator: Sketch 3.8.3 (29802) - http://www.bohemiancoding.com/sketch -->
    <title>dark gray/icon-ui-redpoint-controls-dark-gray</title>
    <desc>Created with Sketch.</desc>
    <defs></defs>
    <g id="gray" stroke="none" stroke-width="1" fill="none" fill-rule="evenodd">
        <g id="icons,-utility-(gray)" transform="translate(-103.000000, -501.000000)" fill="#242F36">
            <g id="dark-gray/icon-ui-redpoint-controls-dark-gray" transform="translate(103.000000, 501.000000)">
                <g id="5-4-6">
                    <g id="PaaS">
                        <g id="redpoint_v2.3_2015-11-13_Kris">
                            <g id="Features">
                                <g id="1-copy">
                                    <path d="M0,16 C0,7.16344401 7.15822189,0 15.9876009,0 L78.7323991,0 C87.5621073,0 94.72,7.16150108 94.72,16 C94.72,24.836556 87.5617782,32 78.7323991,32 L15.9876009,32 C7.15789274,32 0,24.8384989 0,16 L0,16 Z M1.28,16 C1.28,7.87036849 7.87093481,1.28 16.0104492,1.28 L78.7095508,1.28 C86.8449533,1.28 93.44,7.868581 93.44,16 C93.44,24.1296315 86.8490652,30.72 78.7095508,30.72 L16.0104492,30.72 C7.87504672,30.72 1.28,24.131419 1.28,16 L1.28,16 Z M60.1573304,23.0419171 C60.1573304,23.7477828 60.7345787,24.32 61.4255263,24.32 L66.5691346,24.32 C67.2695398,24.32 67.8373304,23.7472136 67.8373304,23.0419171 L67.8373304,8.95808298 C67.8373304,8.25221724 67.2600822,7.68 66.5691346,7.68 L61.4255263,7.68 C60.725121,7.68 60.1573304,8.25278647 60.1573304,8.95808298 L60.1573304,23.0419171 L60.1573304,23.0419171 Z M72.9455263,7.68 C72.245121,7.68 71.6773304,8.25278647 71.6773304,8.95808298 L71.6773304,23.0419171 C71.6773304,23.7477828 72.2545787,24.32 72.9455263,24.32 L78.0891346,24.32 C78.7895398,24.32 79.3573304,23.7472136 79.3573304,23.0419171 L79.3573304,8.95808298 C79.3573304,8.25221724 78.7800822,7.68 78.0891346,7.68 L72.9455263,7.68 L72.9455263,7.68 Z M40.7248082,8.40462746 C40.1463022,8.00442676 39.6773304,8.25278647 39.6773304,8.95808298 L39.6773304,23.0419171 C39.6773304,23.7477828 40.1634755,24.0243185 40.7686513,23.6562403 L51.3860096,17.1985842 C51.9887295,16.8319999 52.0065912,16.209175 51.4298527,15.8101971 L40.7248082,8.40462746 L40.7248082,8.40462746 Z M28.1543876,24.32 C28.8629373,24.32 29.4373304,23.7472136 29.4373304,23.0419171 L29.4373304,8.95808298 C29.4373304,8.25221724 28.8540579,7.68 28.1543876,7.68 L15.3629428,7.68 C14.6543931,7.68 14.08,8.25278647 14.08,8.95808298 L14.08,23.0419171 C14.08,23.7477828 14.6632726,24.32 15.3629428,24.32 L28.1543876,24.32 L28.1543876,24.32 Z" id="5-4-6"></path>
                                </g>
                            </g>
                        </g>
                    </g>
                </g>
            </g>
        </g>
    </g>
</svg>

<svg width="95" height="32" viewBox="0 0 95 32" xmlns="http://www.w3.org/2000/svg"><title>dark gray/icon-ui-redpoint-controls-dark-gray</title><path d="M0 16C0 7.163 7.158 0 15.988 0h62.744c8.83 0 15.988 7.162 15.988 16 0 8.837-7.158 16-15.988 16H15.988C7.158 32 0 24.838 0 16zm1.28 0c0-8.13 6.59-14.72 14.73-14.72h62.7c8.135 0 14.73 6.589 14.73 14.72 0 8.13-6.59 14.72-14.73 14.72h-62.7C7.875 30.72 1.28 24.131 1.28 16zm58.877 7.042a1.28 1.28 0 0 0 1.269 1.278h5.143c.7 0 1.268-.573 1.268-1.278V8.958A1.28 1.28 0 0 0 66.57 7.68h-5.143c-.7 0-1.269.573-1.269 1.278v14.084zM72.946 7.68c-.7 0-1.269.573-1.269 1.278v14.084a1.28 1.28 0 0 0 1.269 1.278h5.143c.7 0 1.268-.573 1.268-1.278V8.958A1.28 1.28 0 0 0 78.09 7.68h-5.143zm-32.221.725c-.579-.4-1.048-.152-1.048.553v14.084c0 .706.486.982 1.092.614L51.386 17.2c.603-.367.62-.99.044-1.389L40.725 8.405zM28.155 24.32a1.28 1.28 0 0 0 1.282-1.278V8.958c0-.706-.583-1.278-1.283-1.278H15.363a1.28 1.28 0 0 0-1.283 1.278v14.084c0 .706.583 1.278 1.283 1.278h12.791z" fill="#242F36" fill-rule="evenodd"/></svg>
